christians-website/frontend/static/images/Projects/app/icon.svg

<svg height="93" viewBox="0 0 94 93" width="94" xmlns="http://www.w3.org/2000/svg"><g fill="none" fill-rule="evenodd"><rect fill="#080808" height="92.746667" rx="13" width="92.746667" x=".626667" y=".126667"/><g fill="#f87000" transform="translate(13.16 21.433333)"><g transform="translate(18.8 .626667)"><path d="m6.03175498 22.7550615c3.81615878 0 6.03175502-5.1174937 6.03175502-11.39563 0-6.27813624-2.25031426-11.34847626-6.03175502-11.35941335-3.78144077-.0109371-6.03175498 4.92354856-6.03175498 11.35941335 0 6.4358648 2.21559619 11.39563 6.03175498 11.39563z"/><path d="m23.2838714 22.7550615c3.8161587 0 6.0317549-5.1174937 6.0317549-11.39563 0-6.27813624-2.2503142-11.34847626-6.0317549-11.35941335-3.7814408-.0109371-6.031755 4.92354856-6.031755 11.35941335 0 6.4358648 2.2155962 11.39563 6.031755 11.39563z" transform="matrix(-1 0 0 1 46.567742 0)"/></g><path d="m1.74795808 26.2593862c.23601832-.5124813.81081996-1.7862251 2.60345702-1.8166589.30818216-.0125444.73151316.0756617 1.18740003.2822656 2.79490295 1.7797539 13.83105777 9.1355731 29.01064697 8.7121519 2.1626995.0189163 14.875982-.1026818 27.2547674-8.5061152.7449054-.5020704 1.3838054-.5386957 1.965719-.4578685.985715.1889775 1.7096121.7303306 2.1280837 1.7324755.6870026 2.1395495 1.1579892 4.9201776 1.7704275 6.7718901.0690096.2176247-.1756449.6634888-.6223493.4191258-.5353307-.4506737-2.7774725-3.5354284-3.1931478-4.1045041-.320375-.3932886-.7198803-.2843191-.8816231-.1611207-2.7672784 4.1787119-9.8670613 18.903566-29.076794 19.1223056-19.6644296-.2690022-26.52245385-15.2758066-29.18529031-19.1223056-.16417765-.1130337-.58518449-.2700941-.94359748.2379519-1.01068704 1.3831095-2.6259424 3.580035-3.13166553 4.0276729-.30925207.1798413-.68762928 0-.62766756-.4079111.25733528-.8327033.96469096-3.9646808 1.74163346-6.7293552z" transform="matrix(-1 0 0 1 67.68 0)"/></g></g></svg>

<?xml version="1.0" encoding="UTF-8"?>
<svg width="94px" height="93px" viewBox="0 0 94 93" version="1.1" xmlns="http://www.w3.org/2000/svg" xmlns:xlink="http://www.w3.org/1999/xlink">
    <!-- Generator: Sketch 53.2 (72643) - https://sketchapp.com -->
    <title>icon</title>
    <desc>Created with Sketch.</desc>
    <g id="personalwebsite" stroke="none" stroke-width="1" fill="none" fill-rule="evenodd">
        <g id="t" transform="translate(-416.000000, -350.000000)">
            <g id="Group-11" transform="translate(171.000000, 343.000000)">
                <g id="Group-2" transform="translate(0.000000, 6.000000)">
                    <g id="Group">
                        <g id="icon" transform="translate(245.000000, 0.500000)">
                            <rect id="Rectangle" fill="#080808" x="0.626666667" y="0.626666667" width="92.7466667" height="92.7466667" rx="13"></rect>
                            <g id="smile" transform="translate(13.160000, 21.933333)" fill="#F87000">
                                <g id="eyes" transform="translate(18.800000, 0.626667)">
                                    <path d="M6.03175498,22.7550615 C9.84791376,22.7550615 12.06351,17.6375678 12.06351,11.3594315 C12.06351,5.08129526 9.81319574,0.0109552426 6.03175498,1.814569e-05 C2.25031421,-0.0109189512 0,4.92356671 0,11.3594315 C2.08921647e-16,17.7952963 2.21559619,22.7550615 6.03175498,22.7550615 Z" id="Oval-3-Copy-6"></path>
                                    <path d="M23.2838714,22.7550615 C27.1000301,22.7550615 29.3156263,17.6375678 29.3156263,11.3594315 C29.3156263,5.08129526 27.0653121,0.0109552426 23.2838714,1.814569e-05 C19.5024306,-0.0109189512 17.2521164,4.92356671 17.2521164,11.3594315 C17.2521164,17.7952963 19.4677126,22.7550615 23.2838714,22.7550615 Z" id="Oval-3-Copy-7" transform="translate(23.283871, 11.377531) scale(-1, 1) translate(-23.283871, -11.377531) "></path>
                                </g>
                                <path d="M1.74795808,26.2593862 C1.9839764,25.7469049 2.55877804,24.4731611 4.3514151,24.4427273 C4.65959726,24.4301829 5.08292826,24.518389 5.53881513,24.7249929 C8.33371808,26.5047468 19.3698729,33.860566 34.5494621,33.4371448 C36.7121616,33.4560611 49.4254441,33.334463 61.8042295,24.9310296 C62.5491349,24.4289592 63.1880349,24.3923339 63.7699485,24.4731611 C64.7556635,24.6621386 65.4795606,25.2034917 65.8980322,26.2056366 C66.5850348,28.3451861 67.0560214,31.1258142 67.6684597,32.9775267 C67.7374693,33.1951514 67.4928148,33.6410155 67.0461104,33.3966525 C66.5107797,32.9459788 64.2686379,29.8612241 63.8529626,29.2921484 C63.5325876,28.8988598 63.1330823,29.0078293 62.9713395,29.1310277 C60.2040611,33.3097396 53.1042782,48.0345937 33.8945455,48.2533333 C14.2301159,47.9843311 7.37209165,32.9775267 4.70925519,29.1310277 C4.54507754,29.017994 4.1240707,28.8609336 3.76565771,29.3689796 C2.75497067,30.7520891 1.13971531,32.9490146 0.633992179,33.3966525 C0.324740106,33.5764938 -0.0536371041,33.3966525 0.00632461532,32.9887414 C0.263659904,32.1560381 0.971015582,29.0240606 1.74795808,26.2593862 Z" id="Path-34-Copy-3" transform="translate(33.840000, 36.346667) scale(-1, 1) translate(-33.840000, -36.346667) "></path>
                            </g>
                        </g>
                    </g>
                </g>
            </g>
        </g>
    </g>
</svg>
